X: 21825
T: Kinnon Beaton
R: jig
M: 6/8
K: Gmajor
d|edG B2 d|egb age|ed G B2 d|ecA ABd|edG B2 d|
egb aga|bag ege|dBG G:|ga|:bgb afa|geg edB|
ecA ABA|ecA Aga|bgb afa|geg edB|dBG GAG|dBG G2 [1g/a/]:|

